X: 14873
T: Garry's Porch
R: waltz
M: 3/4
K: Gmajor
G4E2|D4 B2|AGG4|G4 B2|
d4 B2|e4 d2|BAA4|A4 BA|
G4E2|D4 B2|AGG4|G3 A Bd|
g4 e2|d4 e2|AGG4|1 G3A BA:|2 G4 z2||
|:g4 B2|b4 B2|a4 g2|edd4|
c3d e2|e2 d2 B2|A6|A2 B2 d2|
e3d B2|G6|G3A B2|AGG4|
E4 D2|E4 B2|AG G4|1 G6:|2 G3 A BA||

